X:1
T: Miss Henny McKenzie
C:
R:Reel
Q: 232
K:Am
M:4/4
L:1/8
|:e|A1/2A1/2A ^cA dB dA|Bg gd BG GB|A1/2A1/2A ^cA dB cA|Ba ae ^cA Ae|
A1/2A1/2A ^cA dB dA|Bg gd BG GB|A1/2A1/2A ^cA dB cA|Ba ae ^cA A^g|
ae ^ca ea ca|Bg gd BG Gg|ae ^ca ea ca|Ba ae ^cA A^g|
ae ^ca ea ca|Bg gd BG Gg|a^f ge fd e^c|^fa ae ^cA A:|
